X: 13239
T: Fisherman's Island, The
R: reel
M: 4/4
K: Dmajor
D2 FA d3 A|BAGB AF ~F2|GEED EFGA|(3Bcd ed cAAg|
fd ~d2 edce|d2 cd BAGF|EFGA (3Bcd ed|1 cAGE EDDE:|2 cAGE ED D2||
|:fd ~d2 AF ~F2|DFAd efef|ge~e2 gfec|dfed cAGE|
DF~F2 Ad ~d2|B2gf edcB|Adfa gfed|1 cAGE ED D2:|2 cAGE EDDE||

